src/distro-icons/lubuntu.svg

<svg width="512" height="512" fill="none" xmlns="http://www.w3.org/2000/svg">
<g clip-path="url(#a)">
<circle cx="256" cy="256" r="256" fill="#fff"/>
<path d="M512 256.008C512 114.629 397.382 0 255.995 0 114.613 0 0 114.629 0 256.008 0 397.389 114.613 512 255.995 512 397.382 512 512 397.389 512 256.008Z" fill="#0068C8"/>
<path d="M240.72 211.746c-9.1-9.863-15.099-22.543-16.949-35.83-1.85-13.287.457-27.122 6.517-39.092 6.061-11.97 15.849-22.023 27.657-28.405 11.809-6.383 25.586-9.066 38.929-7.583 21.46 2.385 41.363 15.949 51.418 35.042l120.912 16.665H331.397c-8.598-10.996-21.586-18.464-35.421-20.367-9.88-1.359-20.128.069-29.26 4.075-9.132 4.006-17.119 10.579-22.805 18.766a54.612 54.612 0 0 0-9.612 27.914c-.56 9.95 1.689 20.042 6.421 28.815Zm17 45.207L72.652 123.992c-8.866 17.497-12.375 37.66-9.94 57.12 2.434 19.46 10.802 38.139 23.706 52.917 16.923 19.381 41.647 31.758 67.315 33.7-12.117-3.912-23.217-10.927-31.947-20.19a76.279 76.279 0 0 1-18.254-33.074c-3.645-14.113-3.107-29.277 1.529-43.096l152.659 85.584Z" fill="#fff"/>
<path d="m247.447 292.869-162.61-45.722c-1.31 15.198 1.674 30.742 8.52 44.376 6.846 13.634 17.533 25.317 30.509 33.352 19.25 11.92 43.49 15.484 65.36 9.61-21.91.147-43.616-10.731-56.602-28.365-7.331-9.955-11.94-21.892-13.199-34.188l128.022 20.937Zm74.159-102.046a71.684 71.684 0 0 0-6.214 19.844c-3.386 21.307 2.95 42.828 9.265 63.458 6.315 20.631 12.752 42.099 9.567 63.437-2.379 15.937-10.156 30.855-21.041 42.743-10.884 11.889-24.778 20.829-39.708 26.917-24.594 10.028-52.258 12.384-78.195 6.66v70.93l21.329-50.632c27.643 6.304 57.238 3.754 83.393-7.186 18.732-7.835 35.822-20.034 48.145-36.163 12.322-16.128 19.673-36.28 19.152-56.564-.626-24.385-12.15-46.985-23.304-68.682-11.154-21.698-22.456-44.471-22.58-68.864a75.38 75.38 0 0 1 .191-5.898Z" fill="#fff"/>
</g>
<defs>
<clipPath id="a">
<path fill="#fff" d="M0 0h512v512H0z"/>
</clipPath>
</defs>
</svg>

<svg width="512" height="512" viewBox="0 0 512 512" fill="none" xmlns="http://www.w3.org/2000/svg">
<g clip-path="url(#clip0_2_167)">
<circle cx="256" cy="256" r="256" fill="white"/>
<path d="M512 256.008C512 114.629 397.382 0 255.995 0C114.613 0 -0.000366211 114.629 -0.000366211 256.008C-0.000366211 397.389 114.613 512 255.995 512C397.382 512 512 397.389 512 256.008Z" fill="#0068C8"/>
<path d="M240.72 211.746C231.62 201.883 225.621 189.203 223.771 175.916C221.921 162.629 224.228 148.794 230.288 136.824C236.349 124.854 246.137 114.801 257.945 108.419C269.754 102.036 283.531 99.3528 296.874 100.836C318.334 103.221 338.237 116.785 348.292 135.878L469.204 152.543H331.397C322.799 141.547 309.811 134.079 295.976 132.176C286.096 130.817 275.848 132.245 266.716 136.251C257.584 140.257 249.597 146.83 243.911 155.017C238.225 163.204 234.859 172.981 234.299 182.931C233.739 192.881 235.988 202.973 240.72 211.746Z" fill="white"/>
<path d="M257.72 256.953L72.6523 123.992C63.786 141.489 60.277 161.652 62.7115 181.112C65.1459 200.572 73.5139 219.251 86.4176 234.029C103.341 253.41 128.065 265.787 153.733 267.729C141.616 263.817 130.516 256.802 121.786 247.539C113.056 238.277 106.714 226.785 103.532 214.465C99.8872 200.352 100.425 185.188 105.061 171.369L257.72 256.953Z" fill="white"/>
<path d="M247.447 292.869L84.8374 247.147C83.5267 262.345 86.511 277.889 93.3569 291.523C100.203 305.157 110.89 316.84 123.866 324.875C143.116 336.795 167.356 340.359 189.226 334.485C167.316 334.632 145.61 323.754 132.624 306.12C125.293 296.165 120.684 284.228 119.425 271.932L247.447 292.869Z" fill="white"/>
<path d="M321.606 190.823C318.585 197.089 316.484 203.797 315.392 210.667C312.006 231.974 318.342 253.495 324.657 274.125C330.972 294.756 337.409 316.224 334.224 337.562C331.845 353.499 324.068 368.417 313.183 380.305C302.299 392.194 288.405 401.134 273.475 407.222C248.881 417.25 221.217 419.606 195.28 413.882V484.812L216.609 434.18C244.252 440.484 273.847 437.934 300.002 426.994C318.734 419.159 335.824 406.96 348.147 390.831C360.469 374.703 367.82 354.551 367.299 334.267C366.673 309.882 355.149 287.282 343.995 265.585C332.841 243.887 321.539 221.114 321.415 196.721C321.399 194.754 321.468 192.786 321.606 190.823Z" fill="white"/>
</g>
<defs>
<clipPath id="clip0_2_167">
<rect width="512" height="512" fill="white"/>
</clipPath>
</defs>
</svg>
